X:2222
T:Browne's Hornpipe. BF13.038
M:4/4
Q:160
S:J.Lishman(?)MS,c1825,Lakes,Browne Coll.
R:Hornpipe
O:England
A:Lakes
Z:vmp.Chris Partington
K:F
C2|CFAc BAGF|AFAc dcBA|fefd gfga|bgaf fedc|!
CDFA BAGF|AFAc dcde|fcfa|AcGE|F2F2F2::!
cB|Acfc afaf|GABG gfgA|BcAB GBFG|EFDEC2C2|!
FA ((3)AcA) cA ((3AcA)|GB ((3BdB) dB ((3BdB)|Acfc AFGE|F2F2F2:|]


